src/images/crypto-icon-svg/xtz.svg

<svg xmlns="http://www.w3.org/2000/svg" width="32" height="32" viewBox="0 0 32 32">
  <g fill="none" fill-rule="evenodd">
    <circle cx="16" cy="16" r="16" fill="#A6E000"/>
    <path fill="#FFF" d="M18.1894175,26 C16.7297159,26 15.6662498,25.6564587 14.9984795,24.9691105 C14.3307092,24.2817623 13.996824,23.5410511 13.996824,22.7467113 C13.996824,22.456533 14.0551257,22.2122841 14.1717291,22.0136992 C14.2880625,21.8151142 14.4473125,21.6587419 14.6492091,21.5440511 C14.8508358,21.4296258 15.0994278,21.3722804 15.3944451,21.3722804 C15.6894625,21.3722804 15.9377845,21.4296258 16.1396811,21.5440511 C16.3415777,21.6587419 16.5008277,21.8151142 16.6171612,22.0136992 C16.7337646,22.2122841 16.7920663,22.456533 16.7920663,22.7467113 C16.7920663,23.0982172 16.7065032,23.3844132 16.5356468,23.6058301 C16.3647905,23.8275125 16.1631638,23.9724689 15.9302269,24.0412303 C16.1321235,24.3162757 16.4503536,24.5108784 16.8851871,24.6253037 C17.3197506,24.7476936 17.7545841,24.8087558 18.1894175,24.8087558 C18.7951073,24.8087558 19.3422255,24.6484011 19.8315819,24.3276917 C20.3206683,24.0069823 20.681545,23.5333519 20.9144819,22.9073314 C21.1474187,22.2810455 21.2640221,21.5708654 21.2640221,20.7765256 C21.2640221,19.9136899 21.1358124,19.1766955 20.8796628,18.5658078 C20.6310708,17.947221 20.2623666,17.4889889 19.7732802,17.191377 C19.2841938,16.8934995 18.7562395,16.7445608 18.1894175,16.7445608 C17.8166646,16.7445608 17.3510608,16.8972164 16.7920663,17.2027929 L15.7671981,17.706689 L15.7671981,17.2027929 L20.37897,11.1547131 L13.996824,11.1547131 L13.996824,17.431909 C13.996824,17.9512033 14.1134274,18.3786388 14.3463642,18.7147465 C14.5793011,19.0508542 14.936399,19.2186426 15.4176579,19.2186426 C15.7904108,19.2186426 16.1475087,19.0965181 16.4892214,18.8522693 C16.8306642,18.6077549 17.1256815,18.310143 17.3742735,17.958637 C17.4053137,17.8901411 17.4441815,17.8404949 17.4906069,17.8096983 C17.5373023,17.7717335 17.5877764,17.7526184 17.6420294,17.7526184 C17.7275925,17.7526184 17.8282709,17.7945655 17.9448743,17.8784596 C18.0536502,18.0008496 18.1079031,18.1420891 18.1079031,18.3024438 C18.1000756,18.3786388 18.0806417,18.4856305 18.0496014,18.6231532 C17.7856243,19.2035098 17.4206989,19.6463436 16.9550951,19.9519201 C16.4892214,20.2572312 15.9766523,20.4101523 15.4176579,20.4101523 C14.0356918,20.4101523 13.0807317,20.1428059 12.5527774,19.6081133 C12.0248232,19.0736862 11.7608461,18.3481077 11.7608461,17.431909 L11.7608461,11.1547131 L8.5,11.1547131 L8.5,9.98630082 L11.7608461,9.98630082 L11.7608461,7.32876694 L11.0156101,6.59548936 L11.0156101,6 L13.18168,6 L13.996824,6.41230271 L13.996824,9.98630082 L22.4284365,9.96320338 L23.2670631,10.7880743 L18.0962968,15.874026 C18.4066993,15.7519016 18.7327569,15.675441 19.0744696,15.6449099 C19.6334641,15.6449099 20.2623666,15.8203974 20.9611772,16.1719034 C21.6675454,16.5154448 22.2111547,16.9888097 22.5914653,17.5922637 C22.9720458,18.187753 23.216589,18.7606759 23.3250949,19.3105014 C23.4416983,19.8603268 23.5,20.34909 23.5,20.7765256 C23.5,21.754052 23.2902759,22.6628171 22.8710975,23.5028208 C22.4519191,24.3428245 21.815189,24.9691105 20.9611772,25.3814132 C20.1071654,25.7937159 19.1832455,26 18.1894175,26 Z"/>
  </g>
</svg>

<svg xmlns="http://www.w3.org/2000/svg" width="32" height="32"><g fill="none" fill-rule="evenodd"><circle cx="16" cy="16" r="16" fill="#A6E000"/><path fill="#FFF" d="M18.19 26c-1.46 0-2.524-.344-3.192-1.03-.667-.688-1.001-1.429-1.001-2.223 0-.29.058-.535.175-.733a1.27 1.27 0 0 1 .477-.47c.202-.114.45-.172.745-.172s.544.058.746.172c.202.115.36.271.477.47.117.198.175.443.175.733 0 .351-.085.637-.256.859-.171.222-.373.366-.606.435.202.275.52.47.955.584.435.123.87.184 1.304.184a2.93 2.93 0 0 0 1.643-.481c.489-.321.85-.795 1.082-1.42.233-.627.35-1.337.35-2.131 0-.863-.128-1.6-.384-2.211-.249-.619-.618-1.077-1.107-1.375a2.99 2.99 0 0 0-1.584-.446c-.372 0-.838.152-1.397.458l-1.025.504v-.504l4.612-6.048h-6.382v6.277c0 .52.116.947.35 1.283.232.336.59.504 1.07.504.373 0 .73-.122 1.072-.367a3.76 3.76 0 0 0 .885-.893.342.342 0 0 1 .117-.15.236.236 0 0 1 .151-.056c.086 0 .186.042.303.125a.619.619 0 0 1 .163.424 2.92 2.92 0 0 1-.058.321c-.264.58-.63 1.023-1.095 1.329a2.748 2.748 0 0 1-1.537.458c-1.382 0-2.337-.267-2.865-.802-.528-.534-.792-1.26-.792-2.176v-6.277H8.5V9.986h3.26V7.33l-.744-.734V6h2.166l.815.412v3.574l8.431-.023.84.825-5.172 5.086a3.51 3.51 0 0 1 .978-.23c.56 0 1.188.176 1.887.528.707.343 1.25.817 1.63 1.42.381.596.626 1.169.734 1.719a7.16 7.16 0 0 1 .175 1.466 6.02 6.02 0 0 1-.629 2.726 4.037 4.037 0 0 1-1.91 1.878A6.291 6.291 0 0 1 18.19 26z"/></g></svg>
